VirtualLibraryCreator/HTML/EN/plugins/VirtualLibraryCreator/html/images/vlc_export.svg

<svg height="24" viewBox="0 0 24 24" width="24" xmlns="http://www.w3.org/2000/svg"><path d="m19 3h-14c-1.097 0-2 .903-2 2v14c0 1.097.903 2 2 2h14c1.097 0 2-.903 2-2v-14c0-1.097-.903-2-2-2m0 16h-14v-14h14z"/><path d="m57 426c-18-3-32-18-35-36-1-8-1-260 0-268 3-19 17-33 36-36 8-1 260-1 268 0 19 3 33 17 36 36 1 3 1 20 1 38v32h-21l-57.454.323-.104-41.268-90.637-.301h-94.977l-.426 105.246.159 105.999h94.977l93.633-1.168-.513-41.246 55.342.415h21v32c0 18 0 35-1 38-3 19-17 33-36 36-7 1-262 1-269 0zm348.751-81.088-.516-50.551h-192l-.235-38.361-.246-38.362h192l-.174-49.246v-32l49.354 60.202 45.772 59.406-40.26 50.504-53.695 70.408z" transform="matrix(.0253221 0 0 .0335252 5.47728 3.41755)"/></svg>

<svg width="24" height="24" viewBox="0 0 24 24" version="1.1" xmlns="http://www.w3.org/2000/svg">
    <path d="M19,3L5,3C3.903,3 3,3.903 3,5L3,19C3,20.097 3.903,21 5,21L19,21C20.097,21 21,20.097 21,19L21,5C21,3.903 20.097,3 19,3M19,19L5,19L5,5L19,5L19,19" fill="#000"/>
    <g transform="matrix(0.0253221,0,0,0.0335252,5.47728,3.41755)">
        <path d="M57,426C39,423 25,408 22,390C21,382 21,130 22,122C25,103 39,89 58,86C66,85 318,85 326,86C345,89 359,103 362,122C363,125 363,142 363,160L363,192L342,192L284.546,192.323L284.442,151.055L193.805,150.754L98.828,150.754L98.402,256L98.561,361.999L193.538,361.999L287.171,360.831L286.658,319.585L342,320L363,320L363,352C363,370 363,387 362,390C359,409 345,423 326,426C319,427 64,427 57,426ZM405.751,344.912L405.235,294.361L213.235,294.361L213,256L212.754,217.638L404.754,217.638L404.58,168.392L404.58,136.392L453.934,196.594L499.706,256L459.446,306.504L405.751,376.912L405.751,344.912Z" fill="#000"/>
    </g>
</svg>
